!!!!SEGMENT: pl-cz--ii-16--002_szlagorski-walenty--talnce-walz-2.krn
!!!cenid: 18xx:1066
!!!COM: Szlagórski, Walenty
!!!COM-rismid: pe30111815
!!!CDT: 1801-1863/07/16
!!!CNT: Polish
!!!GTL: Tańce
!!!OTL: Walz 2
!!!PDT:
!!!AGN: Secular; Waltz
!!!SMS-siglum: PL-CZ
!!!SMS-shelfmark: II-16
!!!SMS-shelfwork: 002 G
!!!SMS-variant:
!!!SMS-altvar:
!!!NIFC-rismid: 300001295
!!!URL-scan: http://repozytorium.nifc.pl/skany/pl-cz-nut--ii-16
!!!ONB-nifc: UWAGA: zbiór zawiera Walce nr 1-5, Galop, Mazury nr 1-4
!!!key:
**kern	**kern	**kern	**kern	**kern	**dynam	**kern	**dynam	**kern	**dynam	**kern	**dynam	**kern
*part9	*part8	*part7	*part6	*part5	*part5	*part4	*part4	*part3	*part3	*part2	*part2	*part1
*staff9	*staff8	*staff7	*staff6	*staff5	*	*staff4	*	*staff3	*	*staff2	*	*staff1
*Ibass	*Ivioln	*Ivioln	*Iempty	*Icor	*	*Icor	*	*Iclars	*	*Iclars	*	*Iflt
*I"Basso	*I"Violino 2.do	*I"Violino 1mo	*I"Clarino in D.	*I"Corno 2do in D.	*	*I"Corno 1mo in D.	*	*I"Clarinetto 2do in A.	*	*I"Clarinetto 1mo in A.	*	*I"Flauto
*I'cb	*I'vl 2	*I'vl 1	*I'clno in D	*I'cor 2 in D	*	*I'cor 1 in D	*	*I'cl 2 in A	*	*I'cl 1 in A	*	*I'fl
*>[A,B,A]	*>[A,B,A]	*>[A,B,A]	*>[A,B,A]	*>[A,B,A]	*>[A,B,A]	*>[A,B,A]	*>[A,B,A]	*>[A,B,A]	*>[A,B,A]	*>[A,B,A]	*>[A,B,A]	*>[A,B,A]
*>A	*>A	*>A	*>A	*>A	*>A	*>A	*>A	*>A	*>A	*>A	*>A	*>A
*clefF4	*clefG2	*clefG2	*clefG2	*clefG2	*	*clefG2	*	*clefG2	*	*clefG2	*	*clefG2
*	*	*	*ITrd-1c-2	*ITrd6c10	*	*ITrd6c10	*	*ITrd2c3	*	*ITrd2c3	*	*
*k[f#c#]	*k[f#c#]	*k[f#c#]	*k[f#c#]	*k[f#c#]	*	*k[f#c#]	*	*k[f#c#]	*	*k[f#c#]	*	*k[f#c#]
*D:	*D:	*D:	*D:	*D:	*	*D:	*	*D:	*	*D:	*	*D:
*M3/4	*M3/4	*M3/4	*M3/4	*M3/4	*	*M3/4	*	*M3/4	*	*M3/4	*	*M3/4
=1	=1	=1	=1	=1	=1	=1	=1	=1	=1	=1	=1	=1
*	*	*^	*	*	*	*	*	*	*	*	*	*
*	*	*	*	*	*	*	*	*	*	*	*2\right	*	*
!	!	!	!	!LO:TX:a:t=Solo	!	!LO:DY:rj	!	!LO:DY:rj	!LO:TX:a:t=4	!	!LO:TX:b:t=dol	!LO:DY:rj	!LO:TX:a:t=3
4D\	4d/	2.a/	4r	2.a/	2.D/	pp	2.F#/	pp	0.r	.	2.a\	p	1.r
4r	4d/	.	4f#\	.	.	.	.	.	.	.	.	.	.
4r	4r	.	4f#\	.	.	.	.	.	.	.	.	.	.
=2	=2	=2	=2	=2	=2	=2	=2	=2	=2	=2	=2	=2	=2
*	*	*	*	*	*2\right	*	*2\right	*	*	*	*	*	*
4G\	4r	2b/	4r	2b/	2.e\	.	2.e\	.	.	.	2b\	.	.
4r	4e 4B/	.	4g\	.	.	.	.	.	.	.	.	.	.
!	!	!	!	!LO:SIC:v:s=4dd\	!	!	!	!	!	!	!	!	!
4r	4e 4B/	4ee/	4g\	4ee#X\	.	.	.	.	.	.	4ee\	.	.
=3	=3	=3	=3	=3	=3	=3	=3	=3	=3	=3	=3	=3	=3
.	.	8qdd/	.	.	.	.	.	.	.	.	8qdd/	.	.
4A\	4r	4cc#/	4r	(4cc#\	4A/	.	4e\	.	.	.	(4cc#\	.	2.r
4r	4e 4A/	4b/	4g\	4b\)	4A/	.	4e\	.	.	.	4b\	.	.
4r	4e 4A/	4cc#/	4g\	4cc#'\	4A/	.	4e\	.	.	.	4cc#'\)	.	.
=4	=4	=4	=4	=4	=4	=4	=4	=4	=4	=4	=4	=4	=4
*	*	*	*	*2\right	*	*	*	*	*	*	*	*	*
!	!	!	!	!	!	!	!LO:SIC:v:s=2cc	!	!	!	!	!	!
4D\	4r	2dd/	4r	2dd\	2F#/	.	2B/	.	.	.	2dd\	.	4r
4r	4d 4A/	.	4f#\	.	.	.	.	.	.	.	.	.	4r
4r	4f# 4A/	4a/	4ryy	4r	4r	.	4r	.	.	.	4a\	.	4aa\
*	*	*v	*v	*	*	*	*	*	*	*	*	*	*
=5	=5	=5	=5	=5	=5	=5	=5	=5	=5	=5	=5	=5
!	!	!	!LO:TX:a:t=2	!LO:TX:a:t=2	!	!LO:TX:a:t=2	!	!	!LO:DY:rj	!	!LO:DY:rj	!
4D\	4f# 4A/	4.ff#\	1.r	1.r	.	1.r	.	2.f#/	ff	2.a\	ff	4.fff#\
4D\	4f# 4A/	.	.	.	.	.	.	.	.	.	.	.
.	.	8ee\L	.	.	.	.	.	.	.	.	.	8eee\L
4D\	4f# 4A/	8dd\	.	.	.	.	.	.	.	.	.	8ddd\
.	.	8cc#\J	.	.	.	.	.	.	.	.	.	8ccc#\J
=6	=6	=6	=6	=6	=6	=6	=6	=6	=6	=6	=6	=6
4G\	4e 4A/	4.ee\	.	.	.	.	.	2.e/	.	2.b\	.	4.eee\
4G\	4e 4B/	.	.	.	.	.	.	.	.	.	.	.
.	.	8dd\L	.	.	.	.	.	.	.	.	.	8ddd\L
4G\	4e 4B/	8cc#\	.	.	.	.	.	.	.	.	.	8ccc#\
.	.	8b\J	.	.	.	.	.	.	.	.	.	8bb\J
=7	=7	=7	=7	=7	=7	=7	=7	=7	=7	=7	=7	=7
!	!	!	!	!	!LO:DY:rj	!	!	!	!	!	!	!
4A\	4g 4A/	4.b/	4A/	4A\	ff	4e\	ff	4c#/	.	4g\	.	4.bb\
4AA/	4g 4A/	.	8A/L	4A\	.	4e\	.	4c#/	.	4g\	.	.
.	.	8a/L	8A/J	.	.	.	.	.	.	.	.	8aa\L
4A\	4g 4A/	8g/	4A/	4A\	.	4e\	.	4c#/	.	4g\	.	8gg\
.	.	8e/J	.	.	.	.	.	.	.	.	.	8ee\J
=8	=8	=8	=8	=8	=8	=8	=8	=8	=8	=8	=8	=8
*	*	*	*	*	*	*	*	*	*	*	*	*2\right
!	!	!	!	!	!	!	!	!	!	!LO:TX:a:t=Fine	!	!
4D\	2f# 2A/	2d/	2d/	2F#/	.	2d\	.	2d/	.	2f#\	.	2dd\
4d\	.	.	.	.	.	.	.	.	.	.	.	.
!LO:TX:t=P:problem:fermata na kresce taktowej	!LO:TX:t=P:problem:fermata na kresce taktowej	!LO:TX:t=P:problem:fermata na kresce taktowej	!LO:TX:t=P:problem:fermata na kresce taktowej	!LO:TX:t=P:problem:fermata na kresce taktowej	!	!LO:TX:t=P:problem:fermata na kresce taktowej	!	!	!	!	!	!
!LO:TX:a:t=Fine	!LO:TX:a:t=Fine	!LO:TX:a:t=Fine	!LO:TX:a:t=Fine	!LO:TX:a:t=Fine	!	!LO:TX:a:t=Fine	!	!	!	!	!	!LO:TX:a:t=Fine
4r;	4r;	4r;	4r;	4r;	.	4r;	.	4r;	.	4r;	.	4r;
=9||	=9||	=9||	=9||	=9||	=9||	=9||	=9||	=9||	=9||	=9||	=9||	=9||
*>B	*>B	*>B	*>B	*>B	*>B	*>B	*>B	*>B	*>B	*>B	*>B	*>B
!	!	!	!LO:TX:a:t=2	!	!	!	!	!	!	!	!	!
4E\	4r	4e/	1.r	4d\	.	4e\	.	4d/	.	4e/	.	4ee\
4rBB	4d 4B/	8e/L	.	4r	.	4r	.	8d/L	.	8e/L	.	8ee\L
.	.	8e/J	.	.	.	.	.	8d/J	.	8e/J	.	8ee\J
4rBB	4d 4B/	4e/	.	4r	.	4r	.	4d/	.	4e/	.	4ee\
!	!	!LO:LB:g=original	!	!LO:LB:g=original	!	!LO:LB:g=original	!	!	!	!	!	!
=10	=10	=10	=10	=10	=10	=10	=10	=10	=10	=10	=10	=10
4E\	4r	4e/	.	4d\	.	4e\	.	4d/	.	4e/	.	4ee\
4r	4d 4B/	4g#X/	.	4d\	.	4e\	.	4d/	.	4g#/	.	4gg#X\
4r	4d 4B/	4b/	.	4d\	.	4e\	.	4d/	.	4b/	.	4bb\
!	!LO:LB:g=original	!	!	!	!	!	!	!	!	!	!	!
=11	=11	=11	=11	=11	=11	=11	=11	=11	=11	=11	=11	=11
*	*	*2\right	*	*	*	*	*	*	*	*	*	*
4AA/	4r	2ff#\	2A/	2A/	.	2e\	.	2.c#/	.	(2ff#^\	.	2fff#\
4r	4e 4c#/	.	.	.	.	.	.	.	.	.	.	.
4r	4e 4c#/	4ee\	4a/	4A/	.	4e\	.	.	.	4ee\)	.	4eee\
!LO:LB:g=original	!	!	!LO:LB:g=original	!	!	!	!	!	!	!LO:LB:g=original	!	!LO:LB:g=original
=12	=12	=12	=12	=12	=12	=12	=12	=12	=12	=12	=12	=12
4A\	4r	(8ee\L	4A/	2A/	.	2e\	.	4r	.	4r	.	8eee\L
.	.	8aa\)	.	.	.	.	.	.	.	.	.	8aaa\
4r	4e 4c#/	8gg#X'\	4r	.	.	.	.	4a\	.	4cc#\	.	8ggg#X\
.	.	8ff#'\J	.	.	.	.	.	.	.	.	.	8fff#\J
4r	4e 4c#/	4ee\	4r	4r	.	4r	.	4a\	.	4cc#\	.	4eee\
!	!	!	!	!	!	!	!	!LO:LB:g=original	!	!	!	!
=13	=13	=13	=13	=13	=13	=13	=13	=13	=13	=13	=13	=13
!	!	!	!LO:TX:a:t=2	!LO:TX:a:t=1	!	!LO:TX:a:t=1	!	!	!	!	!	!
4D\	4r	4ff#\	1.r	2.r	.	2.r	.	2.f#/	.	2.b\	.	4fff#\
4r	4b 4f#/	8dd\L	.	.	.	.	.	.	.	.	.	8ddd\L
.	.	8dd\J	.	.	.	.	.	.	.	.	.	8ddd\J
4r	4b 4f#/	4bb\	.	.	.	.	.	.	.	.	.	4bb\
=14	=14	=14	=14	=14	=14	=14	=14	=14	=14	=14	=14	=14
*	*	*	*	*	*	*	*	*2\right	*	*	*	*
!	!	!	!	!LO:N:vis=1	!	!	!	!	!	!	!	!
4E\	4r	4gg#X\	.	2d\	.	2e\	.	2.b\	.	2.dd\	.	4gg#X\
4r	4d 4B/	8ee\L	.	.	.	.	.	.	.	.	.	8eee\L
.	.	8ee\J	.	.	.	.	.	.	.	.	.	8eee\J
4r	4d 4B/	4eee\	.	4r	.	4r	.	.	.	.	.	4eee\
=15	=15	=15	=15	=15	=15	=15	=15	=15	=15	=15	=15	=15
4AA/	4r	4aa\	4A/	4A\	.	4e\	.	4a\	.	4cc#\	.	4aa\
4A\	4e 4c#/	8ee\L	4A/	4A\	.	4e\	.	4a\	.	4cc#\	.	4ee\
.	.	8ee\J	.	.	.	.	.	.	.	.	.	.
4A\	4a 4e/	4ccc#\	4A/	4A\	.	4e\	.	4a\	.	4ee\	.	4ccc#\
=16	=16	=16	=16	=16	=16	=16	=16	=16	=16	=16	=16	=16
4A\	2e 2c#/	2aa\	2A/	2A\	.	2e\	.	2a\	.	2cc#\	.	2aa\
4AA/	.	.	.	.	.	.	.	.	.	.	.	.
!LO:TX:b:t=Da Capo al Fine	!	!	!	!	!	!	!	!LO:TX:b:t=Da Capo al Fine	!	!	!	!
!	!LO:TX:b:t=Da Capo al Fine	!LO:TX:b:t=Da Capo al Fine	!LO:TX:b:t=Da Capo al Fine	!LO:TX:b:t=Da Capo al Fine	!	!LO:TX:b:t=Da Capo al Fine	!	!	!	!LO:TX:b:t=Da Capo al Fine	!	!LO:TX:b:t=Da Capo al Fine
4ryy	4r	4r	4r	4r	.	4r	.	4ryy	.	4r	.	4r
==	==	==	==	==	==	==	==	==	==	==	==	==
*-	*-	*-	*-	*-	*-	*-	*-	*-	*-	*-	*-	*-
!!!system-decoration: [(s1,s2,s3)][(s4,s5,s6)][(s7,s8,s9)]
!!!AIN: 1 bass 2 clars 2 cor 1 empty 1 flt 2 violn
!!!ENC: Krzysztof Stępień
!!!END: 2020-10-03
!!!ENC: Marta Lawrence
!!!END: 2021-11-01
